dist/img/svg/vk_video_c.svg

<svg width="39" height="39" viewBox="0 0 39 39" fill="none" xmlns="http://www.w3.org/2000/svg">
<mask id="mask0_514_5358" style="mask-type:luminance" maskUnits="userSpaceOnUse" x="2" y="2" width="35" height="35">
<path d="M2.39844 2.71005H36.5984V36.91H2.39844V2.71005Z" fill="white"/>
</mask>
<g mask="url(#mask0_514_5358)">
<path d="M2.39844 15.2073C2.39844 4.9188 4.60719 2.71005 14.8957 2.71005H24.1012C34.3897 2.71005 36.5984 4.9188 36.5984 15.2073V24.4128C36.5984 34.7013 34.3897 36.91 24.1012 36.91H14.8957C4.60719 36.91 2.39844 34.7013 2.39844 24.4128V15.2073Z" fill="#0077FF"/>
<path d="M20.7794 36.91H24.0284C34.1459 36.91 36.4829 34.801 36.5969 25.111V14.4521C36.4829 4.8048 34.1174 2.71005 24.0284 2.71005H20.7794C10.4339 2.71005 8.21094 4.9188 8.21094 15.2073V24.4128C8.21094 34.7013 10.4339 36.91 20.7794 36.91Z" fill="#FF2B42"/>
<path d="M26.523 16.8461C28.2615 17.8436 29.1165 18.3423 29.4158 18.9978C29.6723 19.5678 29.6723 20.2233 29.4158 20.7791C29.1308 21.4346 28.2615 21.9333 26.523 22.9308L21.792 25.6668C20.0678 26.6643 19.1985 27.1631 18.486 27.0918C18.181 27.0581 17.8864 26.9608 17.6213 26.8062C17.3562 26.6515 17.1265 26.443 16.947 26.1941C16.5195 25.6241 16.5195 24.6266 16.5195 22.6316V17.1596C16.5195 15.1646 16.5195 14.1671 16.947 13.5971C17.1251 13.3455 17.3542 13.1343 17.6194 12.9771C17.8845 12.82 18.1798 12.7205 18.486 12.6851C19.1985 12.5996 20.0535 13.1126 21.792 14.1101L26.523 16.8318V16.8461Z" fill="white"/>
</g>
</svg>

<svg width="39" height="39" viewBox="0 0 39 39" fill="none" xmlns="http://www.w3.org/2000/svg"><mask id="mask0_514_5358" style="mask-type:luminance" maskUnits="userSpaceOnUse" x="2" y="2" width="35" height="35"><path d="M2.398 2.71h34.2v34.2h-34.2V2.71z" fill="#fff"/></mask><g mask="url(#mask0_514_5358)"><path d="M2.398 15.207C2.398 4.92 4.608 2.71 14.896 2.71H24.1c10.289 0 12.497 2.209 12.497 12.497v9.206c0 10.288-2.208 12.497-12.497 12.497h-9.205c-10.289 0-12.498-2.209-12.498-12.497v-9.206z" fill="#07F"/><path d="M20.78 36.91h3.248c10.118 0 12.455-2.109 12.569-11.799V14.452C36.483 4.805 34.117 2.71 24.028 2.71H20.78c-10.346 0-12.569 2.21-12.569 12.497v9.206c0 10.288 2.223 12.497 12.568 12.497z" fill="#FF2B42"/><path d="M26.523 16.846c1.739.998 2.593 1.496 2.893 2.152.256.57.256 1.225 0 1.781-.285.656-1.154 1.154-2.893 2.152l-4.731 2.736c-1.724.997-2.594 1.496-3.306 1.425a2.195 2.195 0 01-1.539-.898c-.427-.57-.427-1.567-.427-3.562V17.16c0-1.995 0-2.993.427-3.563a2.195 2.195 0 011.539-.912c.712-.085 1.567.428 3.306 1.425l4.731 2.722v.014z" fill="#fff"/></g></svg>
